X:1
T:Across the Templed Hills
T:Across the Templed Hills
T:Ira Bishop Wilson
T:Lizzie DeArmond, 1908
T:Public Domain Courtesy of the Cyber Hymnal™
T:Public Domain Courtesy of the Cyber Hymnal™
C:Ira Bishop Wilson
Z:Public Domain
Z:Courtesy of the Cyber Hymnal™
%%score ( 1 2 ) ( 3 4 )
L:1/8
Q:1/4=100
M:9/8
K:Bb
V:1 treble 
V:2 treble 
V:3 bass 
V:4 bass 
V:1
 [DF] [^C=E]2 [DF] | [Fd]3- [Fd]2 [Ec] ([DB][FA])[EG] | [DF]6 [DB]3 | [EA]3- [EA]2 [Ec] (GA)[EG] | %4
w: 1.~Now sweeps a|song * of sol- * emn|joy A-|cross * the tem- * pled|
w: 2.~The tune- ful|notes * still ring * a-|far, Like|bells * that gai- * ly|
w: 3.~We hear a-|gain * the bliss- * ful|strain, The|mes- * sage breathed * once|
 [DF]3- [DF]2 [DF] [^C=E]2 [DF] | [Fd]3- [Fd]2 [Ec] ([DB][FA])[EG] | [DF]6 [_DG]3 | %7
w: hills; * From ser- aph|harps * sweet mu- * sic|floats, That|
w: chime, * Thro’ moon- lit|skies, * form star * to|star, To|
w: more; * “All glo- ry|be * to God!” * we|cry, Whose|
 [CA]3- ([CA][DB])[CA] [CA]2 [B,G] | [A,F]6 ||[M:4/4]"^Refrain" [B,D]>[CE] | %10
w: earth * * and Heav- en|thrills.||
w: hail * * the Christ- mas-|time.|Hark the|
w: Name * * our souls a-|dore.||
 [DF]2 [Fd]2 [Fd]2 [Dc]>[DA] | [Ec]>[EB] [EA]>[EG] [DF]2 [DF]>[DB] | [EB]2 [EA]2 [EA]2 [EG]>[EA] | %13
w: |||
w: song, glad song, O- ver-|flow- ing all the earth! Hark the|an- them sweet, Bring- ing|
w: |||
 [EG]>[DF] [^C=E]>[DF] [B,D]2 [B,D]>[=C_E] | [DF]2 [Fd]2 [Fd]2 [Dc]>[DA] | %15
w: ||
w: news of Je- sus’ birth! While the|mid- night skies With a|
w: ||
 [Ec]>[EB] [EA]>[EG] [DF]2 [Fd]>[Fd] | [Ee]2"^riten." [=EB][EB] [Fd]3 [_Ec] | [DB]4 z |] %18
w: |||
w: won- drous beau- ty glow, Comes the|Christ- Child to dwell be-|low.|
w: |||
V:2
 x4 | x9 | x9 | x6 E2 x | x9 | x9 | x9 | x9 | x6 ||[M:4/4] x2 | x8 | x8 | x8 | x8 | x8 | x8 | x8 | %17
 x5 |] %18
V:3
 z4 | B,,(D,F, B,2) z F,2 z | (B,,D,F, B,2) z F,2 z | (F,,A,,C, F,2) z F,,2 z | (B,,D,F, B,2) z4 | %5
 (B,,D,F, B,2) z F,2 z | (B,,D,F, B,2) z F,2 z | (C,=B,,C, =E,2) z C,2 z | (F,C,A,, F,,3) || %9
 [B,,F,]>[B,,F,] | [B,,B,]2 [B,,B,]2 [B,,B,]2 [B,,F,]>[B,,^F,] | %11
 [B,,G,]>[B,,G,][B,,G,]>[B,,A,] [B,,B,]2 [B,,B,]>[B,,F,] | [C,F,]2 [C,F,]2 [F,C]2 [F,C]>[F,C] | %13
 [B,,B,]>[B,,B,][B,,B,]>[B,,B,] [B,,F,]2 [B,,F,]>[B,,F,] | %14
 [B,,B,]2 [B,,B,]2 [B,,B,]2 [B,,F,]>[B,,^F,] | [B,,G,]>[B,,G,][B,,G,]>[B,,A,] [B,,B,]2 B,>[_A,B,] | %16
 [G,B,]2 [_G,B,] [G,B,] (B,A,) [F,A,] x | [B,,F,]4 z |] %18
V:4
 x4 | x9 | x9 | x9 | x9 | x9 | x9 | x9 | x6 || x2 | x8 | x8 | x8 | x8 | x8 | x6 B,3/2 x/ | %16
 x4 F,3 =G, | x5 |] %18

